X: 61
T: Brasoveanca
O: Romania
F: http://www.youtube.com/watch?v=xUcisB551-E
F: http://www.youtube.com/watch?v=T-zTESpmp8M
F: http://www.youtube.com/watch?v=ls95HG75mjY
M: 2/4
L: 1/8
K: F
Q: 1/4=240
|:C2F2|A2d2|c2A2|z2A2|cdcB|ABAG|A2c2|z4|
  C2F2|A2d2|c2A2|z2A2|cdcB|ABAG|F4|z4::
   d3e|f2d2|c2A2|z2A2|cdcB|ABAG|A2c2|z4|
   d3e|f2d2|c2A2|z2A2|cdcB|ABAG|F4|z4:|



